assets/folder-down_icon.svg

<svg width="17" height="17" viewBox="0 0 17 17" fill="none" xmlns="http://www.w3.org/2000/svg">
<path d="M15.9144 5.18576C16.349 5.72469 15.8784 6.4195 15.1861 6.4195H1.8719C1.31962 6.4195 0.871902 5.97179 0.871902 5.4195V4.15551C0.871902 2.20351 2.4559 0.619507 4.4079 0.619507H6.2639C7.5679 0.619507 7.9759 1.04351 8.4959 1.73951L9.6159 3.22751C9.8639 3.55551 9.8959 3.59551 10.3599 3.59551H12.5919C13.9336 3.59551 15.1319 4.2154 15.9144 5.18576Z" fill="#111111"/>
<path d="M15.8591 7.61951C16.41 7.6195 16.8571 8.06478 16.8591 8.6156L16.8718 12.3392C16.8718 14.6992 14.9516 16.6195 12.5916 16.6195H5.1521C2.7921 16.6195 0.871826 14.6992 0.871826 12.3392V8.61951C0.871826 8.06723 1.31955 7.61951 1.87183 7.61951H15.8591ZM8.19897 12.8148H8.19019L6.78394 11.4086C6.52256 11.1474 6.09016 11.1473 5.82886 11.4086C5.56761 11.6699 5.56768 12.1023 5.82886 12.3636L8.39722 14.9232C8.65858 15.1846 9.09191 15.1846 9.35327 14.9232L11.9119 12.3549C12.038 12.2197 12.1111 12.0485 12.1111 11.8773C12.1111 11.7061 12.0471 11.535 11.9119 11.3998C11.6505 11.1385 11.2181 11.1385 10.9568 11.3998L9.55151 12.8051V9.11951H8.19897V12.8148Z" fill="#111111"/>
</svg>

<?xml version="1.0" encoding="UTF-8"?>
<svg id="Layer_1" xmlns="http://www.w3.org/2000/svg" version="1.1" viewBox="0 0 17 17">
  <!-- Generator: Adobe Illustrator 29.7.1, SVG Export Plug-In . SVG Version: 2.1.1 Build 8)  -->
  <path d="M15.9,5.2c.4.5,0,1.2-.7,1.2H1.9c-.6,0-1-.4-1-1v-1.3C.9,2.2,2.5.6,4.4.6h1.9c1.3,0,1.7.4,2.2,1.1l1.1,1.5c.2.3.3.4.7.4h2.2c1.3,0,2.5.6,3.3,1.6Z" fill="#111"/>
  <path d="M15.9,7.6c.6,0,1,.4,1,1v3.7c0,2.4-1.9,4.3-4.3,4.3h-7.4c-2.4,0-4.3-1.9-4.3-4.3v-3.7c0-.6.4-1,1-1h14ZM8.2,12.8h0l-1.4-1.4c-.3-.3-.7-.3-1,0-.3.3-.3.7,0,1l2.6,2.6c.3.3.7.3,1,0l2.6-2.6c.1-.1.2-.3.2-.5s0-.3-.2-.5c-.3-.3-.7-.3-1,0l-1.4,1.4v-3.7h-1.4v3.7Z" fill="#111"/>
</svg>
